X:18963
T:Xiraldilla (CT 059)
R:Xiraldilla
C:Tradicional
S:Música Tradicional Asturiana, (C) Tello & Tito. Asturies, 2001.
S:http://pagina.de/MusTradAst <telloytito@asturies.org>
N:Xiraldilla, transcrita en Uviéu.
O:Uviéu
A:Asturies
Z:Cancioneru de Torner 059
M:2/4
L:1/8
Q:1/4=160
W:Cómo dormirás, Manuela,
W:cómo dormirás, querida,
W:entre grillos y cadenas
W:toda la noche metida.
W:Manuela, cómo dormirás.
K:Gm
|GG GB|d3 c|e2 d2|dd dd|c3 B|A2 G2|
GG GB|d3 c|e2 d2|dd dd|c3 B|A2 GG|c2 c2|BB AA|G2 z2 ||


